!!!OTL: The Shepherd Adonis
!!!id: HA021
**kern
*clefF4
*k[f#]
*G:
*M3/4
{8.g
16f#
=1
4d
4g
4f#
=2
4g
4b}
{4cc
=3
4dd
8.f#
16g
8f#
8d
=4
2f#}
{8.g
16f#
=5
4d
4g
4f#
=6
4g
4b}
{8.b
16cc
=7
4dd
8ee
8dd
8cc
8b
=8
2g}
{8.dd
16ee
=9
4ff#
8ee
8dd
8cc
8b
=10
4.b}
{8cc
4dd
=11
4f#
16b
8.g
16f#
8.d
=12
2f#}
{8.b
16a
=13
4.g
8f#
16g
8g
8a
8b
16g
=14
8d
8e
4f#}
{8b
8a
=15
4g
8ee
8dd
8cc
8b
=16
2g}
==
*-
!!!minrhy: 16
!!!meter: 3/4  
!!!cut: The Shepherd Adonis
!!!key: HA021  16  g 3/4  
!!!bem: Vorschlge, Triller, Melismen weg
!!!fog: a--b--a--c--d--e--f--g--
!! Haydn: Volksliedbearbeitungen, Bd1
